web/ui/src/assets/svgs/logo/secondary.svg

<svg height="55" viewBox="0 0 210 55" width="210" xmlns="http://www.w3.org/2000/svg" xmlns:xlink="http://www.w3.org/1999/xlink"><mask id="a" fill="#fff"><path d="m.00021561.32728953h18.97934289v53.14289327h-18.97934289z" fill="#fff" fill-rule="evenodd"/></mask><g fill="none" fill-rule="evenodd"><g fill="#012c53"><path d="m9.34370637 5.17449487c0-2.68601643 2.21901433-4.84724846 4.84724843-4.84724846 2.6860165 0 4.7886037 2.16123203 4.7886037 4.84724846 0 2.62780287-2.1025872 4.78860369-4.7886037 4.78860369-2.6282341 0-4.84724843-2.16080082-4.84724843-4.78860369m9.63585213 11.91394253v21.8990759c0 7.9424846-6.3068994 14.4248871-14.24938396 14.4826695-2.62780288-.0577824-4.72995893-2.1603697-4.72995893-4.7886037 0-2.6864477 2.16036961-4.8468173 4.84681724-4.8468173h-.23371663c2.62823409 0 4.73039015-2.1025873 4.73039015-4.8472485v-21.8990759c0-2.6873101 2.21901433-4.8472485 4.84724843-4.8472485 2.6860165 0 4.7886037 2.1599384 4.7886037 4.8472485" mask="url(#a)" transform="translate(0 .103922)"/><path d="m24.8197577 5.57108008c0-2.68601642 2.1025873-4.84724846 4.7886037-4.84724846 2.6864476 0 4.7890349 2.16123204 4.7890349 4.84724846 0 2.62780288-2.1025873 4.78860372-4.7890349 4.78860372-2.6860164 0-4.7886037-2.16080084-4.7886037-4.78860372"/><path d="m34.3973532 17.2500123v19.5636345c0 2.6278029-2.1025873 4.7890349-4.7886037 4.7890349-2.6864477 0-4.7890349-2.161232-4.7890349-4.7890349v-19.5636345c0-2.6278029 2.1025872-4.7886037 4.7890349-4.7886037 2.6860164 0 4.7886037 2.1608008 4.7886037 4.7886037"/><path d="m54.8955092 31.8404415c-2.4648049 0-4.5311704-1.820575-4.8558726-4.1504107-.0254415-.2069815-.0495894-.4152567-.0495894-.638193 0-.2233676.0241479-.4312115.0495894-.6386242.3247022-2.3298358 2.3910677-4.1508419 4.8558726-4.1508419 2.6278029 0 4.7886037 2.161232 4.7886037 4.7890349h.0582136v.0008624h-.0582136c0 2.6273717-2.1608008 4.7881725-4.7886037 4.7881725zm14.5982341-4.7886037.0012937-.0004312h-.0025873c-.0047433 0-.0556263-.0021561-.0556263-.0582136v-9.6940657-.0008624c0-2.6860164-2.2194456-4.846386-4.8472485-4.846386-1.0870841 0-2.0310061.3190965-2.8097741.8969199-.2337166.1660164-.4523408.3501437-.652423.5541067-2.3380287-1.3928131-6.2318686-1.4510266-6.2318686-1.4510266-2.642464 0-5.115462.6964065-7.2525462 1.9094045-.1138398.0418275-.2276796.083655-.3393634.134538l-.9930801.6425051c-3.300924 2.3578645-5.5617659 6.1283778-5.9925462 10.379692-.0043121.0426899-.0077618.0862423-.0116427.1297946-.0185421.199651-.0362218.3997331-.0461396.6015401-.0086243.156961-.0112115.316078-.0146612.4743326-.0017249.0901232-.008193.1789528-.008193.2695072v.0582136.0008624.0573511c0 .0905544.0064681.1798152.008193.2699384.0034497.1582546.0060369.3169405.0146612.4739015.0099178.2022382.0275975.4023203.0461396.6019712.0038809.0435524.0073306.0871047.0116427.1297947.4307803 4.2513141 2.6916222 8.0218275 5.9925462 10.3792608l.9930801.6429363c.1116838.0504517.2255236.0922793.3393634.1341068 2.1370842 1.2129979 4.6100822 1.9094045 7.2525462 1.9094045 0 0 3.8938399-.0582136 6.2318686-1.4505955.2000822.2035318.4187064.3880904.652423.5541068.778768.5778234 1.72269.8964887 2.8097741.8964887 2.6278029 0 4.8472485-2.1603696 4.8472485-4.846386v-.0008625-9.6940657c0-.0560575.050883-.0573511.0556263-.0573511h.0025873z"/><path d="m104.535758 27.002809v9.7522793c0 2.6864476-2.161232 4.8472485-4.8472488 4.8472485-2.6864476 0-4.8468172-2.1608009-4.8468172-4.8472485v-9.7522793c0-2.6860164-2.2194456-4.8468172-4.9058932-4.8468172-2.6860165 0-4.8468173 2.1608008-4.8468173 4.8468172v9.7522793c0 2.6864476-2.1608008 4.8472485-4.8472484 4.8472485-2.6864477 0-4.9054621-2.1608009-4.9054621-4.8472485v-9.7522793c0-8.0589117 6.5406161-14.5990965 14.5995278-14.5990965 8.0593429 0 14.5999592 6.5401848 14.5999592 14.5990965"/></g><path d="m159.139164 27.0613244v9.7522793c0 2.6278029-2.219014 4.7890349-4.905462 4.7890349-2.686447 0-4.847248-2.161232-4.847248-4.7890349v-9.7522793c0-2.6860164-2.219015-4.905462-4.905462-4.905462-2.686448 0-4.905031 2.2194456-4.905031 4.905462v9.7522793c0 2.6278029-2.161232 4.7890349-4.847248 4.7890349-2.686448 0-4.905462-2.161232-4.905462-4.7890349v-9.7522793c0-2.6860164-2.102588-4.905462-4.788604-4.905462-2.686448 0-4.905893 2.2194456-4.905893 4.905462v9.7522793c0 2.6278029-2.160801 4.7890349-4.846818 4.7890349-2.686447 0-4.905462-2.161232-4.905462-4.7890349v-9.7522793c0-8.1175564 6.59883-14.6577412 14.658173-14.6577412 3.73731 0 7.124476 1.4014373 9.694066 3.73731 2.569589-2.3358727 6.014969-3.73731 9.752279-3.73731 8.059343 0 14.658172 6.5988295 14.658172 14.6577412" fill="#096dd9"/><path d="m164.98139 27.002809v-9.7527104c0-2.6864477 2.160801-4.8463861 4.847249-4.8463861 2.686016 0 4.846817 2.1599384 4.846817 4.8463861v9.7527104c0 2.6860165 2.219014 4.8472485 4.905462 4.8472485s4.84768-2.161232 4.84768-4.8472485v-9.7527104c0-2.6864477 2.160369-4.8463861 4.846817-4.8463861 2.686016 0 4.905462 2.1599384 4.905462 4.8463861v9.7527104c0 8.059343-6.540616 14.5995278-14.599959 14.5995278-8.058912 0-14.599528-6.5401848-14.599528-14.5995278" fill="#096dd9"/><path d="m199.226267 12.4034969h4.287967v.5204723h-1.84731v4.7127105h-.593347v-4.7127105h-1.84731z" fill="#096dd9"/><path d="m204.166441 12.4034969h.74729l1.949938 4.4634702h.021992l1.942177-4.4634702h.747289v5.2331828h-.600677v-4.1633471h-.021992l-1.810657 4.1633471h-.542033l-1.810657-4.1633471h-.021561v4.1633471h-.601109z" fill="#0181df"/></g></svg>

<?xml version="1.0" encoding="UTF-8"?>
<svg width="210px" height="55px" viewBox="0 0 210 55" version="1.1" xmlns="http://www.w3.org/2000/svg" xmlns:xlink="http://www.w3.org/1999/xlink">
    <title>编组</title>
    <defs>
        <polygon id="path-1" points="0.000215605749 0.327289528 18.9795585 0.327289528 18.9795585 53.4701828 0.000215605749 53.4701828"></polygon>
    </defs>
    <g id="页面-1" stroke="none" stroke-width="1" fill="none" fill-rule="evenodd">
        <g id="建木节点库登录页（二维码）" transform="translate(-855.000000, -122.000000)">
            <g id="编组" transform="translate(855.000000, 122.000000)">
                <g transform="translate(0.000000, 0.103922)">
                    <mask id="mask-2" fill="white">
                        <use xlink:href="#path-1"></use>
                    </mask>
                    <g id="Clip-2"></g>
                    <path d="M9.34370637,5.17449487 C9.34370637,2.48847844 11.5627207,0.327246407 14.1909548,0.327246407 C16.8769713,0.327246407 18.9795585,2.48847844 18.9795585,5.17449487 C18.9795585,7.80229774 16.8769713,9.96309856 14.1909548,9.96309856 C11.5627207,9.96309856 9.34370637,7.80229774 9.34370637,5.17449487 M18.9795585,17.0884374 L18.9795585,38.9875133 C18.9795585,46.9299979 12.6726591,53.4124004 4.73017454,53.4701828 C2.10237166,53.4124004 0.000215605749,51.3098131 0.000215605749,48.6815791 C0.000215605749,45.9951314 2.16058522,43.8347618 4.84703285,43.8347618 L4.61331622,43.8347618 C7.24155031,43.8347618 9.34370637,41.7321745 9.34370637,38.9875133 L9.34370637,17.0884374 C9.34370637,14.4011273 11.5627207,12.2411889 14.1909548,12.2411889 C16.8769713,12.2411889 18.9795585,14.4011273 18.9795585,17.0884374" id="Fill-1" fill="#012C53" mask="url(#mask-2)"></path>
                </g>
                <path d="M24.8197577,5.57108008 C24.8197577,2.88506366 26.922345,0.723831622 29.6083614,0.723831622 C32.294809,0.723831622 34.3973963,2.88506366 34.3973963,5.57108008 C34.3973963,8.19888296 32.294809,10.3596838 29.6083614,10.3596838 C26.922345,10.3596838 24.8197577,8.19888296 24.8197577,5.57108008" id="Fill-3" fill="#012C53"></path>
                <path d="M34.3973532,17.2500123 L34.3973532,36.8136468 C34.3973532,39.4414497 32.2947659,41.6026817 29.6087495,41.6026817 C26.9223018,41.6026817 24.8197146,39.4414497 24.8197146,36.8136468 L24.8197146,17.2500123 C24.8197146,14.6222094 26.9223018,12.4614086 29.6087495,12.4614086 C32.2947659,12.4614086 34.3973532,14.6222094 34.3973532,17.2500123" id="Fill-5" fill="#012C53"></path>
                <path d="M54.8955092,31.8404415 C52.4307043,31.8404415 50.3643388,30.0198665 50.0396366,27.6900308 C50.0141951,27.4830493 49.9900472,27.2747741 49.9900472,27.0518378 C49.9900472,26.8284702 50.0141951,26.6206263 50.0396366,26.4132136 C50.3643388,24.0833778 52.4307043,22.2623717 54.8955092,22.2623717 C57.5233121,22.2623717 59.6841129,24.4236037 59.6841129,27.0514066 L59.7423265,27.0514066 L59.7423265,27.052269 L59.6841129,27.052269 C59.6841129,29.6796407 57.5233121,31.8404415 54.8955092,31.8404415 L54.8955092,31.8404415 Z M69.4937433,27.0518378 L69.495037,27.0514066 L69.4924497,27.0514066 C69.4877064,27.0514066 69.4368234,27.0492505 69.4368234,26.993193 L69.4368234,17.2991273 L69.4368234,17.2982649 C69.4368234,14.6122485 67.2173778,12.4518789 64.5895749,12.4518789 C63.5024908,12.4518789 62.5585688,12.7709754 61.7798008,13.3487988 C61.5460842,13.5148152 61.32746,13.6989425 61.1273778,13.9029055 C58.7893491,12.5100924 54.8955092,12.4518789 54.8955092,12.4518789 C52.2530452,12.4518789 49.7800472,13.1482854 47.642963,14.3612834 C47.5291232,14.4031109 47.4152834,14.4449384 47.3035996,14.4958214 L46.3105195,15.1383265 C43.0095955,17.496191 40.7487536,21.2667043 40.3179733,25.5180185 C40.3136612,25.5607084 40.3102115,25.6042608 40.3063306,25.6478131 C40.2877885,25.8474641 40.2701088,26.0475462 40.260191,26.2493532 C40.2515667,26.4063142 40.2489795,26.5654312 40.2455298,26.7236858 C40.2438049,26.813809 40.2373368,26.9026386 40.2373368,26.993193 L40.2373368,27.0514066 L40.2373368,27.052269 L40.2373368,27.1096201 C40.2373368,27.2001745 40.2438049,27.2894353 40.2455298,27.3795585 C40.2489795,27.5378131 40.2515667,27.696499 40.260191,27.85346 C40.2701088,28.0556982 40.2877885,28.2557803 40.3063306,28.4554312 C40.3102115,28.4989836 40.3136612,28.5425359 40.3179733,28.5852259 C40.7487536,32.83654 43.0095955,36.6070534 46.3105195,38.9644867 L47.3035996,39.607423 C47.4152834,39.6578747 47.5291232,39.6997023 47.642963,39.7415298 C49.7800472,40.9545277 52.2530452,41.6509343 54.8955092,41.6509343 C54.8955092,41.6509343 58.7893491,41.5927207 61.1273778,40.2003388 C61.32746,40.4038706 61.5460842,40.5884292 61.7798008,40.7544456 C62.5585688,41.332269 63.5024908,41.6509343 64.5895749,41.6509343 C67.2173778,41.6509343 69.4368234,39.4905647 69.4368234,36.8045483 L69.4368234,36.8036858 L69.4368234,27.1096201 C69.4368234,27.0535626 69.4877064,27.052269 69.4924497,27.052269 L69.495037,27.052269 L69.4937433,27.0518378 Z" id="Fill-7" fill="#012C53"></path>
                <path d="M104.535758,27.002809 L104.535758,36.7550883 C104.535758,39.4415359 102.374526,41.6023368 99.6885092,41.6023368 C97.0020616,41.6023368 94.841692,39.4415359 94.841692,36.7550883 L94.841692,27.002809 C94.841692,24.3167926 92.6222464,22.1559918 89.9357988,22.1559918 C87.2497823,22.1559918 85.0889815,24.3167926 85.0889815,27.002809 L85.0889815,36.7550883 C85.0889815,39.4415359 82.9281807,41.6023368 80.2417331,41.6023368 C77.5552854,41.6023368 75.336271,39.4415359 75.336271,36.7550883 L75.336271,27.002809 C75.336271,18.9438973 81.8768871,12.4037125 89.9357988,12.4037125 C97.9951417,12.4037125 104.535758,18.9438973 104.535758,27.002809" id="Fill-9" fill="#012C53"></path>
                <path d="M159.139164,27.0613244 L159.139164,36.8136037 C159.139164,39.4414066 156.92015,41.6026386 154.233702,41.6026386 C151.547255,41.6026386 149.386454,39.4414066 149.386454,36.8136037 L149.386454,27.0613244 C149.386454,24.375308 147.167439,22.1558624 144.480992,22.1558624 C141.794544,22.1558624 139.575961,24.375308 139.575961,27.0613244 L139.575961,36.8136037 C139.575961,39.4414066 137.414729,41.6026386 134.728713,41.6026386 C132.042265,41.6026386 129.823251,39.4414066 129.823251,36.8136037 L129.823251,27.0613244 C129.823251,24.375308 127.720663,22.1558624 125.034647,22.1558624 C122.348199,22.1558624 120.128754,24.375308 120.128754,27.0613244 L120.128754,36.8136037 C120.128754,39.4414066 117.967953,41.6026386 115.281936,41.6026386 C112.595489,41.6026386 110.376474,39.4414066 110.376474,36.8136037 L110.376474,27.0613244 C110.376474,18.943768 116.975304,12.4035832 125.034647,12.4035832 C128.771957,12.4035832 132.159123,13.8050205 134.728713,16.1408932 C137.298302,13.8050205 140.743682,12.4035832 144.480992,12.4035832 C152.540335,12.4035832 159.139164,19.0024127 159.139164,27.0613244" id="Fill-11" fill="#096DD9"></path>
                <path d="M164.98139,27.002809 L164.98139,17.2500986 C164.98139,14.5636509 167.142191,12.4037125 169.828639,12.4037125 C172.514655,12.4037125 174.675456,14.5636509 174.675456,17.2500986 L174.675456,27.002809 C174.675456,29.6888255 176.89447,31.8500575 179.580918,31.8500575 C182.267366,31.8500575 184.428598,29.6888255 184.428598,27.002809 L184.428598,17.2500986 C184.428598,14.5636509 186.588967,12.4037125 189.275415,12.4037125 C191.961431,12.4037125 194.180877,14.5636509 194.180877,17.2500986 L194.180877,27.002809 C194.180877,35.062152 187.640261,41.6023368 179.580918,41.6023368 C171.522006,41.6023368 164.98139,35.062152 164.98139,27.002809" id="Fill-13" fill="#096DD9"></path>
                <polygon id="Fill-15" fill="#096DD9" points="199.226267 12.4034969 203.514234 12.4034969 203.514234 12.9239692 201.666924 12.9239692 201.666924 17.6366797 201.073577 17.6366797 201.073577 12.9239692 199.226267 12.9239692"></polygon>
                <polygon id="Fill-17" fill="#0181DF" points="204.166441 12.4034969 204.913731 12.4034969 206.863669 16.8669671 206.885661 16.8669671 208.827838 12.4034969 209.575127 12.4034969 209.575127 17.6366797 208.97445 17.6366797 208.97445 13.4733326 208.952458 13.4733326 207.141801 17.6366797 206.599768 17.6366797 204.789111 13.4733326 204.76755 13.4733326 204.76755 17.6366797 204.166441 17.6366797"></polygon>
            </g>
        </g>
    </g>
</svg>
